packages/core/src/svgs/teer.svg

<svg width="24" height="24" viewBox="0 0 24 24" fill="none" xmlns="http://www.w3.org/2000/svg">
<g clip-path="url(#clip0_31_19621)">
<path d="M0 0H24V24H0V0Z" fill="#000563"/>
<path d="M18.3857 7.28585C18.6428 7.28585 18.8571 7.11443 18.8571 6.85728C18.8571 6.60014 18.6428 6.42871 18.3857 6.42871H5.61425C5.35711 6.42871 5.14282 6.60014 5.14282 6.85728C5.14282 7.11443 5.31425 7.28585 5.57139 7.28585H11.5714V17.143C11.5714 17.2567 11.6165 17.3657 11.6969 17.446C11.7773 17.5264 11.8863 17.5716 12 17.5716C12.1136 17.5716 12.2226 17.5264 12.303 17.446C12.3834 17.3657 12.4285 17.2567 12.4285 17.143V7.28585H18.3857Z" fill="#F0F3FA"/>
<path d="M9.85711 8.14307H5.57139C5.32711 8.14307 5.14282 8.31021 5.14282 8.57164C5.14282 8.83307 5.32711 9.00021 5.57139 9.00021H9.42854V12.4288H6.04711C5.81568 12.4288 5.57139 12.6088 5.57139 12.8574C5.57139 13.1059 5.76854 13.2859 5.99997 13.2859H9.42854V16.7145H5.57139C5.32711 16.7145 5.14282 16.8816 5.14282 17.1431C5.14282 17.4045 5.32711 17.5716 5.57139 17.5716H9.85711C10.0285 17.5716 10.1357 17.4688 10.2128 17.3145C10.2557 17.2374 10.2857 17.1431 10.2857 17.0402V8.67449C10.2857 8.56735 10.2557 8.46449 10.2 8.38307C10.1228 8.24164 10.02 8.14307 9.85711 8.14307ZM18.4285 9.00021C18.6728 9.00021 18.8571 8.83307 18.8571 8.57164C18.8571 8.31021 18.6728 8.14307 18.4285 8.14307H14.1857C14.0185 8.14307 13.8771 8.24164 13.8 8.38307C13.7443 8.46878 13.7143 8.56735 13.7143 8.67449V17.0402C13.7143 17.1388 13.74 17.2331 13.7871 17.3145C13.8643 17.4688 13.9714 17.5716 14.1428 17.5716H18.4285C18.6728 17.5716 18.8571 17.4045 18.8571 17.1431C18.8571 16.8816 18.6728 16.7145 18.4285 16.7145H14.5714V13.2859H18C18.2314 13.2859 18.4285 13.1059 18.4285 12.8574C18.4285 12.6088 18.2314 12.4288 18 12.4288H14.5714V9.00021H18.4285Z" fill="#F0F3FA"/>
</g>
<defs>
<clipPath id="clip0_31_19621">
<rect width="24" height="24" fill="white"/>
</clipPath>
</defs>
</svg>

<svg xmlns="http://www.w3.org/2000/svg" width="24" height="24" fill="none" viewBox="0 0 24 24"><g clip-path="url(#a)"><path fill="#000563" d="M0 0h24v24H0z"/><path fill="#F0F3FA" d="M18.386 7.286c.257 0 .471-.172.471-.429s-.214-.428-.471-.428H5.614c-.257 0-.471.171-.471.428s.171.429.428.429h6v9.857a.428.428 0 1 0 .857 0V7.286z"/><path fill="#F0F3FA" d="M9.857 8.143H5.571a.41.41 0 0 0-.428.429A.41.41 0 0 0 5.57 9H9.43v3.429H6.047c-.231 0-.476.18-.476.428 0 .249.198.429.429.429h3.429v3.429H5.57a.41.41 0 0 0-.428.428.41.41 0 0 0 .428.429h4.286c.172 0 .279-.103.356-.258a.57.57 0 0 0 .073-.274V8.674c0-.107-.03-.21-.086-.29-.077-.142-.18-.24-.343-.24M18.43 9a.41.41 0 0 0 .428-.428.41.41 0 0 0-.428-.429h-4.243a.44.44 0 0 0-.386.24.53.53 0 0 0-.086.291v8.366c0 .099.026.193.073.274.077.155.184.258.356.258h4.285a.41.41 0 0 0 .43-.429.41.41 0 0 0-.43-.428h-3.857v-3.43H18c.231 0 .428-.18.428-.428A.424.424 0 0 0 18 12.43h-3.429V9z"/></g><defs><clipPath id="a"><path fill="#fff" d="M0 0h24v24H0z"/></clipPath></defs></svg>
